**kern	**kern
*staff2	*staff1
*clefF4	*clefG2
*k[b-]	*k[b-]
*M3/4	*M3/4
=-	=-
4r	4c
=148	=148
2.r	12fL
.	(12FF
.	12CJ
.	12FL)
.	(12A
.	12cJ
.	12fL
.	12c
.	12aJ
=149	=149
2.r	12gL)
.	(12CC
.	12GGJ
.	12CL)
.	(12c
.	12eJ
.	12gL
.	12e
.	12b-J)
=150	=150
(4F	12r
.	(12g#L
.	12aJ)
4D	12r
.	(12eL
.	12fJ)
4BB-)	12r
.	(12dL
.	12gJ) 12b-
=151	=151
2C	(4f 4a
.	4e) 4g
4r	8.ccL
.	16ccJk
=152	=152
2.r	16ccLL
.	(16A
.	16f)
.	(16ccJJ
.	16b-LL)
.	(16G
.	16e)
.	(16b-JJ
.	16aLL)
.	(16F
.	16f)
.	16aJJ
=153	=153
2.BBB- 2.BB-	12r
.	(12gL
.	12ddJ
.	12cc#L
.	12cc
.	12bJ
.	12b-L
.	12a
.	12gJ)
=154	=154
*^	*
4CC 4C	2r	(12fL
.	.	12c
.	.	12aJ
4r	.	12fL
.	.	12cc
.	.	12aJ
8GL	4C	12b-L
.	.	12g
8B-J	.	.
.	.	12eJ)
=155	=155	=155
4A	4F	4f
4r	4FF	4r
*v	*v	*
*-	*-
